static/images/general/icon-heart.svg

<svg height="14" viewBox="0 0 16 14" width="16" xmlns="http://www.w3.org/2000/svg"><path d="m14.6523438 4.125c-1.3535157 0-2.6296132.59948568-3.4804688 1.57362305-.8508928-.97413737-2.12695312-1.57362305-3.48046875-1.57362305-2.39773062 0-4.25390625 1.79827799-4.25390625 4.12124023 0 2.84725257 2.62961313 5.13290367 6.6127419 8.65440757l1.1216331.9743522 1.1216331-.9743522c3.9830916-3.5215397 6.6127419-5.8071908 6.6127419-8.65440757 0-2.32296224-1.8561756-4.12124023-4.2539062-4.12124023z" fill="#006bb8" transform="matrix(-1 0 0 1 19.34375 -4)"/></svg>

<?xml version="1.0" encoding="UTF-8"?>
<svg width="16px" height="14px" viewBox="0 0 16 14" version="1.1" xmlns="http://www.w3.org/2000/svg" xmlns:xlink="http://www.w3.org/1999/xlink">
    <!-- Generator: Sketch 58 (84663) - https://sketch.com -->
    <title>a/icons/32/heart</title>
    <desc>Created with Sketch.</desc>
    <g id="Symbols" stroke="none" stroke-width="1" fill="none" fill-rule="evenodd">
        <g id="m/footer-Copy-1" transform="translate(-692.000000, -662.000000)" fill="#14BA5A" fill-rule="nonzero">
            <g id="m/footer" transform="translate(2.000000, 0.000000)">
                <g id="#1---built-by">
                    <g transform="translate(0.000000, 651.000000)">
                        <g id="byDynatrace" transform="translate(615.000000, 5.000000)">
                            <g id="a/icons/32/heart" transform="translate(72.000000, 2.000000)">
                                <path d="M14.6523438,4.125 C13.2988281,4.125 12.0227306,4.72448568 11.171875,5.69862305 C10.3209822,4.72448568 9.04492188,4.125 7.69140625,4.125 C5.29367563,4.125 3.4375,5.92327799 3.4375,8.24624023 C3.4375,11.0934928 6.06711313,13.3791439 10.0502419,16.9006478 L11.171875,17.875 L12.2935081,16.9006478 C16.2765997,13.3791081 18.90625,11.093457 18.90625,8.24624023 C18.90625,5.92327799 17.0500744,4.125 14.6523438,4.125 Z" id="Shape" transform="translate(11.171875, 11.000000) scale(-1, 1) translate(-11.171875, -11.000000) "></path>
                            </g>
                        </g>
                    </g>
                </g>
            </g>
        </g>
    </g>
</svg>
